public/icons/arbitrum.svg

<svg width="42" height="43" viewBox="0 0 42 43" fill="none" xmlns="http://www.w3.org/2000/svg">
<circle cx="21" cy="21.0707" r="21" fill="white"/>
<path d="M23.2768 20.151L24.8925 17.4095L29.2474 24.1923L29.2494 25.494L29.2352 16.5366C29.2249 16.3176 29.1086 16.1172 28.9232 15.999L21.0827 11.4893C20.8994 11.3991 20.6667 11.4002 20.4837 11.4921C20.4589 11.5046 20.4358 11.518 20.4136 11.5327L20.3862 11.5499L12.7758 15.96L12.7463 15.9736C12.7082 15.9909 12.6699 16.0133 12.6338 16.039C12.4895 16.1424 12.3936 16.2955 12.3626 16.467C12.358 16.493 12.3545 16.5195 12.353 16.5463L12.3649 23.8457L16.4213 17.5586C16.932 16.725 18.0447 16.4563 19.0777 16.4711L20.29 16.503L13.1468 27.9586L13.9889 28.4433L21.2175 16.5147L24.4127 16.503L17.2027 28.7327L20.2073 30.461L20.5663 30.6673C20.7182 30.7291 20.8971 30.7322 21.0502 30.6768L29.0009 26.0693L27.4808 26.9502L23.2768 20.151ZM23.8932 29.0293L20.8585 24.2663L22.7111 21.1227L26.6966 27.4046L23.8932 29.0293Z" fill="#2D374B"/>
<path d="M20.8579 24.2664L23.8927 29.0294L26.6959 27.4048L22.7105 21.1228L20.8579 24.2664Z" fill="#28A0F0"/>
<path d="M29.2489 25.4941L29.2469 24.1924L24.892 17.4096L23.2764 20.1511L27.4805 26.9503L29.0005 26.0694C29.1496 25.9484 29.2399 25.7707 29.2494 25.579L29.2489 25.4941Z" fill="#28A0F0"/>
<path d="M11 26.7217L13.1466 27.9586L20.2897 16.5031L19.0775 16.4711C18.0446 16.4565 16.9318 16.7251 16.4211 17.5587L12.3647 23.8457L11 25.9425V26.7217Z" fill="white"/>
<path d="M24.4126 16.503L21.2175 16.5147L13.9888 28.4433L16.5155 29.898L17.2025 28.7327L24.4126 16.503Z" fill="white"/>
<path d="M30.5955 16.4865C30.5689 15.8183 30.207 15.2067 29.6403 14.8506L21.6972 10.2826C21.1366 10.0003 20.4363 9.99994 19.8747 10.2825C19.8083 10.3159 12.1501 14.7574 12.1501 14.7574C12.0441 14.8082 11.942 14.8687 11.8461 14.9375C11.3402 15.3001 11.0318 15.8635 11 16.4825V25.9426L12.3647 23.8458L12.3528 16.5464C12.3544 16.5197 12.3578 16.4933 12.3624 16.4674C12.3932 16.2957 12.4892 16.1425 12.6335 16.039C12.6697 16.0133 20.4585 11.5046 20.4833 11.4921C20.6665 11.4002 20.899 11.3991 21.0823 11.4893L28.9227 15.9991C29.1082 16.1172 29.2245 16.3176 29.2348 16.5366V25.5787C29.2253 25.7704 29.1495 25.9482 29.0004 26.0692L27.4804 26.95L26.696 27.4046L23.8928 29.0292L21.0498 30.6767C20.8967 30.7321 20.7176 30.7289 20.5659 30.6672L17.2023 28.7326L16.5152 29.8979L19.538 31.6382C19.6379 31.6951 19.727 31.7454 19.8001 31.7866C19.9132 31.8501 19.9904 31.8925 20.0176 31.9057C20.2325 32.0101 20.5415 32.0707 20.8201 32.0707C21.0754 32.0707 21.3245 32.0239 21.5602 31.9316L29.8177 27.1496C30.2916 26.7823 30.5705 26.2285 30.5955 25.6287V16.4865Z" fill="#96BEDC"/>
</svg>

<svg width="42" height="43" fill="none" xmlns="http://www.w3.org/2000/svg"><circle cx="21" cy="21.071" r="21" fill="#fff"/><path d="m23.277 20.151 1.615-2.741 4.355 6.782.002 1.302-.014-8.957a.675.675 0 0 0-.312-.538l-7.84-4.51a.69.69 0 0 0-.67.044l-.027.017-7.61 4.41-.03.014a.684.684 0 0 0-.383.493.67.67 0 0 0-.01.08l.012 7.299 4.056-6.287c.511-.834 1.624-1.103 2.657-1.088l1.212.032-7.143 11.456.842.484 7.229-11.928 3.195-.012-7.21 12.23 3.004 1.728.36.206c.151.062.33.065.483.01L29 26.069l-1.52.881-4.203-6.799Zm.616 8.878-3.035-4.763 1.853-3.143 3.986 6.282-2.804 1.624Z" fill="#2D374B"/><path d="m20.858 24.266 3.035 4.763 2.803-1.624-3.986-6.282-1.852 3.143ZM29.249 25.494l-.002-1.302-4.355-6.782-1.616 2.741 4.204 6.8 1.52-.882a.674.674 0 0 0 .25-.49l-.001-.085Z" fill="#28A0F0"/><path d="m11 26.722 2.147 1.237 7.143-11.456-1.212-.032c-1.033-.015-2.146.254-2.657 1.088l-4.056 6.287L11 25.942v.78ZM24.413 16.503l-3.195.012-7.23 11.928 2.527 1.455.688-1.165 7.21-12.23Z" fill="#fff"/><path d="M30.596 16.486a2.035 2.035 0 0 0-.956-1.635l-7.943-4.568a2.066 2.066 0 0 0-1.822 0c-.067.033-7.725 4.474-7.725 4.474A2.02 2.02 0 0 0 11 16.482v9.46l1.365-2.096-.012-7.3a.672.672 0 0 1 .28-.507c.037-.026 7.826-4.534 7.85-4.547a.69.69 0 0 1 .6-.003l7.84 4.51a.675.675 0 0 1 .312.538v9.042a.659.659 0 0 1-.235.49l-1.52.881-.784.455-2.803 1.624-2.843 1.648a.689.689 0 0 1-.484-.01l-3.364-1.934-.687 1.165 3.023 1.74a65.677 65.677 0 0 0 .48.268c.215.104.523.165.802.165.255 0 .505-.047.74-.14l8.258-4.781c.474-.368.752-.921.777-1.521v-9.143Z" fill="#96BEDC"/></svg>
